lib/assets/icons/svg/outlined-content-gift.svg

<svg xmlns="http://www.w3.org/2000/svg" viewBox="0 0 24 24"><path d="M6.18 21.5a1.61 1.61 0 0 1-1.6-1.63v-6.656a.476.476 0 0 1-.179-.106 1.592 1.592 0 0 1-.981-1.438V9.55a1.62 1.62 0 0 1 1.59-1.61h1.78a4.092 4.092 0 0 1-.37-.46 2.592 2.592 0 0 1-.27-2.08 2.89 2.89 0 0 1 2.77-2.15c.254-.006.507.028.75.1a3.91 3.91 0 0 1 2.25 2.17 4.877 4.877 0 0 1 2.76-2.91c.268-.072.543-.109.82-.11a3.2 3.2 0 0 1 3.08 2.37 2.82 2.82 0 0 1-.3 2.28 4.425 4.425 0 0 1-.69.8h1.42a1.59 1.59 0 0 1 1.57 1.6v2.09a1.6 1.6 0 0 1-1.15 1.54v6.72a1.62 1.62 0 0 1-1.61 1.6zM5.01 8.94a.62.62 0 0 0-.6.61v2.11c.01.29.222.529.499.58h5.101V8.998H8.55A.512.512 0 0 1 8.34 9l-.111-.002h-.923v-.017zm14.017 3.3a.61.61 0 0 0 .573-.6V9.55a.6.6 0 0 0-.59-.55h-3.16c-.017 0-.034 0-.051-.002H14.22v3.242h4.807zM5.57 19.88a.6.6 0 0 0 .6.62h3.84v-7.26H5.57zm12.27.62a.61.61 0 0 0 .61-.61v-6.65h-4.23v7.26zm-.4-13.87c.263-.443.329-.976.18-1.47a2.19 2.19 0 0 0-2.11-1.66c-.195.003-.39.026-.58.07-.866.235-1.724 1.296-2.389 3.089a2.742 2.742 0 0 1 1.721 1.339h1.423A3.667 3.667 0 0 0 17.44 6.63zM9.41 4.31a1.75 1.75 0 0 0-.4-.06 1.92 1.92 0 0 0-1.9 1.42c-.127.426-.073.886.15 1.27.314.469.757.836 1.275 1.058h1.237a3.248 3.248 0 0 1 1.61-1.253c-.555-1.389-1.255-2.237-1.972-2.435zm1.6 7.93h2.21V8.998h-2.21zm0 8.26h2.21v-7.26h-2.21zm1.07-12.909a2.249 2.249 0 0 0-.945.407h1.818a2.001 2.001 0 0 0-.873-.407z"/></svg>

<svg viewBox="0 0 24 24" xmlns="http://www.w3.org/2000/svg">
  <path  d="M 6.18 21.5 C 5.287 21.495 4.569 20.763 4.58 19.87 L 4.58 13.214 C 4.512 13.192 4.451 13.155 4.401 13.108 C 3.823 12.868 3.433 12.307 3.42 11.67 L 3.42 9.55 C 3.425 8.671 4.131 7.956 5.01 7.94 L 6.79 7.94 C 6.656 7.796 6.532 7.642 6.42 7.48 C 6.041 6.856 5.943 6.1 6.15 5.4 C 6.483 4.141 7.618 3.261 8.92 3.25 C 9.174 3.244 9.427 3.278 9.67 3.35 C 10.689 3.729 11.504 4.515 11.92 5.52 C 12.38 4.199 13.385 3.14 14.68 2.61 C 14.948 2.538 15.223 2.501 15.5 2.5 C 16.944 2.505 18.206 3.476 18.58 4.87 C 18.809 5.638 18.699 6.467 18.28 7.15 C 18.083 7.443 17.851 7.712 17.59 7.95 L 19.01 7.95 C 19.884 7.961 20.586 8.676 20.58 9.55 L 20.58 11.64 C 20.582 12.352 20.113 12.98 19.43 13.18 L 19.43 19.9 C 19.419 20.783 18.703 21.495 17.82 21.5 Z M 5.01 8.94 C 4.679 8.951 4.415 9.219 4.41 9.55 L 4.41 11.66 C 4.42 11.95 4.632 12.189 4.909 12.24 C 4.911 12.24 7.243 12.24 10.01 12.24 L 10.01 8.998 L 8.55 8.998 C 8.482 9.013 8.411 9.014 8.34 9 L 8.229 8.998 L 7.306 8.998 L 7.306 8.981 Z M 19.027 12.24 C 19.341 12.222 19.595 11.963 19.6 11.64 L 19.6 9.55 C 19.574 9.242 19.319 9.004 19.01 9 L 15.85 9 C 15.833 9 15.816 9 15.799 8.998 L 14.22 8.998 L 14.22 12.24 C 16.856 12.24 19.025 12.24 19.027 12.24 Z M 5.57 19.88 C 5.559 20.219 5.831 20.5 6.17 20.5 L 10.01 20.5 L 10.01 13.24 L 5.57 13.24 Z M 17.84 20.5 C 18.177 20.5 18.45 20.227 18.45 19.89 L 18.45 13.24 L 14.22 13.24 L 14.22 20.5 Z M 17.44 6.63 C 17.703 6.187 17.769 5.654 17.62 5.16 C 17.378 4.19 16.51 3.507 15.51 3.5 C 15.315 3.503 15.12 3.526 14.93 3.57 C 14.064 3.805 13.206 4.866 12.541 6.659 C 13.269 6.846 13.895 7.328 14.262 7.998 L 15.685 7.998 C 16.398 7.735 17.011 7.256 17.44 6.63 Z M 9.41 4.31 C 9.279 4.275 9.145 4.254 9.01 4.25 C 8.125 4.229 7.34 4.815 7.11 5.67 C 6.983 6.096 7.037 6.556 7.26 6.94 C 7.574 7.409 8.017 7.776 8.535 7.998 L 9.772 7.998 C 10.164 7.413 10.73 6.977 11.382 6.745 C 10.827 5.356 10.127 4.508 9.41 4.31 Z M 11.01 12.24 C 11.743 12.24 12.491 12.24 13.22 12.24 L 13.22 8.998 L 11.01 8.998 Z M 11.01 20.5 L 13.22 20.5 L 13.22 13.24 L 11.01 13.24 Z M 12.08 7.591 C 11.734 7.653 11.411 7.793 11.135 7.998 L 12.953 7.998 C 12.702 7.796 12.404 7.654 12.08 7.591 Z"/>
</svg>
